X:1     %Music
T:Pretty Saro
B:Alan Lomax, The Penguin Book of American Folk Songs, Penguin, 1964
F:http://www.folkinfo.org/songs
M:3/4     %Meter
L:1/8     %
K:G
DE |G2 ED (GE) |[M:4/4] G2 (A3G) (AG) |[M:3/4](ED) D2 (GE) | D4 
w:Way *down in the lone_ val-ley,_ in_ some_ lone-some_ place,
(DE) |G2 (ED) ED |[M:4/4] G2 A4 Ac |[M:3/4](BA) (GA) (BG) | A4
w: I_ wish no_ bet-ter pas-time than to be_ with_ my_ sweet, 
 GG |[M:4/4] A2 (d3B) (dB) |(AG) (G3A) GA |[M:3/4] B2 G2 E2 |D4
w:But she says she_ won't_ have_ me,_ so that I un-der-stand
 (B,D) |[M:4/4] D2 (A3F) (AB) |(AG) G4 D2 |[M:3/4]G2 D2 E2 | D4 z2 |]
w:She_ wants some_ free--hold--er, where I have no la